!!!COM:	Tinctoris, Johannes
!!!CDT:	~1435///-1511//
!!!OTL:	Vostre regart
!!!AGN:	Song; Chanson
!!!SCT:	Tin3010
!!!SCA:	Tin3010
!!!voices:	3
**kern	**kern	**kern
*staff3	*staff2	*staff1
*Ivox	*Ivox	*Ivox
*I"Contra	*I"Tenor	*I"Superius
*I'C	*I'T	*I'S
*clefF4	*clefGv2	*clefG2
*k[b-]	*k[]	*k[]
*M2/1	*M2/1	*M2/1
*met(C|)	*met(C|)	*met(C|)
=1-	=1-	=1-
[0G	0r	0g
=2	=2	=2
0G]	0r	1d
.	.	1d
=3	=3	=3
1C	0G	1e
1GG	.	[1d
=4	=4	=4
1.BB-	1D	2d/]
.	.	2e/
.	1D	1f
2D\	.	.
=5	=5	=5
1C	1E	1g
[1F	1D	[1a
=6	=6	=6
2F\]	0F	2a/]
2G\	.	2b\
1A	.	2cc\
.	.	2dd\
=7	=7	=7
1d	1G	1b
1c	1A	[1a
=8	=8	=8
2A\	1F	2a/]
2c\	.	2g/
1G	1B-i	[1g
=9	=9	=9
0D	0A	1g]
.	.	1f#i
=10	=10	=10
1E-	[0G	0g
[1C	.	.
=11	=11	=11
2C/]	0G]	1r
2BB-/	.	.
[1GG	.	1g
=12	=12	=12
0GG]	1r	1b-
.	1G	1b-i
=13	=13	=13
0D	1.F	1.a
.	4E/	4g/
.	4D/	4f/
=14	=14	=14
1C	1E	1g
1AA	1F	1a
=15	=15	=15
1.GG	1.G	1d
.	.	[1dd
2AA/	2F/	.
=16	=16	=16
2BB-/	0D	2dd\]
2C/	.	2cc\
[1D	.	2b-i\
.	.	2a/
=17	=17	=17
1D]	[0d	1a
[1G	.	[1b-i
=18	=18	=18
2G\]	1d]	2b-\]
2D\	.	2a/
1F	1c	[1a
=19	=19	=19
0G	0B-i	1a]
.	.	1g
=20	=20	=20
0D	[0A	[0a
=21	=21	=21
1r	0A]	0a]
1F	.	.
=22	=22	=22
1G	1B-i	0r
1E	1c	.
=23	=23	=23
1D	1d	1f
1E	1G	1g
=24	=24	=24
1C	1r	1e
1BB-	1F	[1d
=25	=25	=25
1GG	1G	2d/]
.	.	1g
1G	1E	.
.	.	2e/
=26	=26	=26
1A	1D	1f
1G	1E	1g
=27	=27	=27
1D	1.F	1.a
[1F	.	.
.	2G/	2b\
=28	=28	=28
2F\]	2A/	1.cc
2E\	2B\	.
2C/	[1c	.
2D\	.	2b\
=29	=29	=29
2E\	1c]	2g/
2F\	.	2a/
1G	1B	[1g
=30	=30	=30
0D	0A	2g/]
.	.	4f#i/
.	.	4g/
.	.	2f#i/
.	.	2e/
=31	=31	=31
[0GG	[0G	0g
=32	=32	=32
0GG]	0G]	1r
.	.	1d
=33	=33	=33
1C	1r	1e
1BB-	1D	1f
=34	=34	=34
1r	1E	1g
1D	1F	1a
=35	=35	=35
1E	1G	1g
1F	1A	1cc
=36	=36	=36
1G	1G	2b\
.	.	2dd\
1A	1c	2cc\
.	.	2a/
=37	=37	=37
1G	2d\	2b\
.	2B\	2g/
1F	[1c	2a/
.	.	4g/
.	.	4f/
=38	=38	=38
1r	2c\]	1e
.	2A/	.
1G	1B	2d/
.	.	[2g/
=39	=39	=39
2E\	2G/	2g/]
1.D	2A/	2f/
.	1F	2d/
.	.	4c/
.	.	4d/
=40	=40	=40
1C	1G	1e
1D	1F	[1d
=41	=41	=41
0AA	0E	1d]
.	.	1c#i
=42	=42	=42
0A	0D	[0d
=43	=43	=43
1r	1G	0d]
1G	[1B	.
=44	=44	=44
1E	2B\]	0r
.	2c\	.
1F	1A	.
=45	=45	=45
1G	1B	1g
1C	1c	1e
=46	=46	=46
1D	1A	1f
[1GG	1G	[1g
=47	=47	=47
2GG/]	1E	1g]
2C/	.	.
1AA	1F	1a
=48	=48	=48
1GG	0G	2b\
.	.	1dd
1G	.	.
.	.	2b\
=49	=49	=49
1.F	1.A	1cc
.	.	[1a
2G\	2B\	.
=50	=50	=50
1A	1c	2a/]
.	.	2g/
1D	1d	2f/
.	.	2e/
=51	=51	=51
1G	1B	1d
2r	[1A	2e/
[2D\	.	[2f/
=52	=52	=52
2D\]	2A/]	2f/]
2BB-/	2B-i\	2g/
1AA	1c	2a/
.	.	4g/
.	.	4a/
=53	=53	=53
1GG	1d	1b-
1GG	1B-i	[1g
=54	=54	=54
0D	0A	2g/]
.	.	4f#i/
.	.	4e/
.	.	1f#i
=55	=55	=55
0GGl	0Gl	0gl
==	==	==
*-	*-	*-
!!!RDF**kern: l=long note in original notation
!!!RDF**kern: i=editorial accidental
!!!ENC:	Chris Gage 01-29-2015
!!!END:	2015/03/07/
!!!EED:	Jesse Rodin
!!!EEV:	2015/03/21/
!!!ONB:	Translated from MusicXML and edited on 2015/03/21/ by Craig Sapp
!!muse2ps: C^@{COM}^i2I150v95,95,150Q16
